src/32/apps/config-language.svg

<?xml version="1.0" encoding="UTF-8" standalone="no"?>
<svg
   xmlns:dc="http://purl.org/dc/elements/1.1/"
   xmlns:cc="http://creativecommons.org/ns#"
   xmlns:rdf="http://www.w3.org/1999/02/22-rdf-syntax-ns#"
   xmlns:svg="http://www.w3.org/2000/svg"
   xmlns="http://www.w3.org/2000/svg"
   xmlns:sodipodi="http://sodipodi.sourceforge.net/DTD/sodipodi-0.dtd"
   xmlns:inkscape="http://www.inkscape.org/namespaces/inkscape"
   version="1.1"
   width="32"
   height="32"
   id="svg4715"
   inkscape:version="0.92.4 (5da689c313, 2019-01-14)"
   sodipodi:docname="config-language.svg">
  <sodipodi:namedview
     pagecolor="#ffffff"
     bordercolor="#666666"
     borderopacity="1"
     objecttolerance="10"
     gridtolerance="10"
     guidetolerance="10"
     inkscape:pageopacity="0"
     inkscape:pageshadow="2"
     inkscape:window-width="1366"
     inkscape:window-height="697"
     id="namedview254"
     inkscape:document-rotation="0"
     showgrid="false"
     inkscape:zoom="14.6875"
     inkscape:cx="3.220369"
     inkscape:cy="23.482745"
     inkscape:window-x="0"
     inkscape:window-y="0"
     inkscape:window-maximized="1"
     inkscape:current-layer="svg4715" />
  <defs
     id="defs4717" />
  <metadata
     id="metadata4720">
    <rdf:RDF>
      <cc:Work
         rdf:about="">
        <dc:format>image/svg+xml</dc:format>
        <dc:type
           rdf:resource="http://purl.org/dc/dcmitype/StillImage" />
        <dc:title />
      </cc:Work>
    </rdf:RDF>
  </metadata>
  <rect
     width="18"
     height="18"
     rx="0.54069757"
     ry="0.54069757"
     x="3"
     y="-29"
     transform="scale(1,-1)"
     id="rect5505"
     style="color:#000000;fill:#f2f2f2;fill-opacity:1;fill-rule:nonzero;stroke:none;stroke-width:1;marker:none;visibility:visible;display:inline;overflow:visible;enable-background:accumulate" />
  <path
     style="font-size:13.9508791px;font-style:normal;font-variant:normal;font-weight:600;font-stretch:normal;text-align:start;line-height:125%;letter-spacing:0px;word-spacing:0px;writing-mode:lr-tb;text-anchor:start;fill:#666666;fill-opacity:1;stroke:none;font-family:Open Sans;-inkscape-font-specification:Open Sans Semi-Bold"
     d="m 10.09375,14.25 c -0.0045,0.05451 -0.0085,0.197361 -0.03125,0.40625 C 10.02162,14.987775 9.99145,15.268404 9.96875,15.5 L 9.9375,15.9375 9.90625,16.25 c -0.513171,0.03634 -1.066423,0.06251 -1.625,0.0625 -0.3723891,9e-6 -0.7435326,-0.03524 -1.125,-0.0625 L 7.25,17.21875 c 0.1453199,0.0091 0.3485177,0.03126 0.59375,0.03125 0.631238,8e-6 1.273927,-0.03925 1.96875,-0.09375 C 9.74438,17.96915 9.73237,18.690348 9.71875,19.3125 9.260075,19.562277 8.892934,19.80473 8.625,20 7.2217362,21.058128 6.4999991,22.218817 6.5,23.53125 6.4999991,24.498548 6.9234818,25 7.75,25 c 0.685734,0 1.410934,-0.294252 2.1875,-0.84375 0.0772,0.48592 0.133539,0.810344 0.15625,0.9375 l 1,-0.375 C 10.975671,24.273703 10.915866,23.824051 10.875,23.40625 11.470594,22.845282 11.995909,22.211882 12.46875,21.5 L 11.5,21.5 c -0.05703,0 -0.101878,-0.02217 -0.15625,-0.03125 -0.189143,0.262264 -0.381039,0.512942 -0.59375,0.75 C 10.73189,21.949125 10.7291,21.477252 10.71875,21.125 10.581651,20.953893 10.5,20.737303 10.5,20.5 l 0,-6.21875 L 10.09375,14.25 z M 9.6875,20.28125 c 0.01362,1.153494 0.05688,2.085895 0.125,2.8125 -0.667575,0.613077 -1.289175,0.937501 -1.875,0.9375 -0.2679389,1e-6 -0.4062519,-0.169023 -0.40625,-0.46875 C 7.5312481,23.49892 7.513622,23.451665 7.5,23.40625 7.513622,23.37446 7.531248,23.31358 7.53125,23.25 7.585744,22.546101 7.9608894,21.829444 8.6875,21.09375 c 0.340594,-0.358758 0.682105,-0.621761 1,-0.8125 z M 16.375,21.5 c 0.01162,0.102858 0.03125,0.203244 0.03125,0.3125 -1.1e-5,0.89918 -0.44058,1.611296 -1.3125,2.15625 -0.685745,0.431425 -1.601059,0.721135 -2.75,0.84375 L 12.9375,25.75 c 1.312428,-0.186194 2.339884,-0.56642 3.09375,-1.125 0.967286,-0.717524 1.468738,-1.66809 1.46875,-2.8125 -1e-6,-0.108478 -0.02233,-0.208852 -0.03125,-0.3125 l -1.09375,0 z"
     id="text4533-9" />
  <rect
     width="19.000002"
     height="19.000002"
     rx="1"
     ry="1"
     x="2.4999981"
     y="10.500026"
     id="rect5505-21-8-1"
     style="opacity:1;color:#000000;fill:none;stroke:#000000;stroke-width:1;stroke-linecap:round;stroke-linejoin:round;stroke-miterlimit:4;stroke-opacity:0.19607843;stroke-dasharray:none;stroke-dashoffset:0;marker:none;visibility:visible;display:inline;overflow:visible;enable-background:accumulate" />
  <rect
     width="19.000002"
     height="19.000002"
     rx="1"
     ry="1"
     x="10.499998"
     y="2.5000257"
     id="rect5505-21-8-5"
     style="color:#000000;fill:#51a6f5;fill-opacity:1;fill-rule:nonzero;stroke:none;stroke-width:1;marker:none;visibility:visible;display:inline;overflow:visible;enable-background:accumulate" />
  <rect
     width="19.000002"
     height="19.000002"
     rx="1"
     ry="1"
     x="10.499998"
     y="2.5000257"
     id="rect5505-21-8-1-2"
     style="opacity:0.5;color:#000000;fill:#000000;stroke:#002e99;stroke-width:1;stroke-linecap:round;stroke-linejoin:round;stroke-miterlimit:4;stroke-opacity:1;stroke-dasharray:none;stroke-dashoffset:0;marker:none;visibility:visible;display:inline;overflow:visible;enable-background:accumulate;clip-rule:nonzero;isolation:auto;mix-blend-mode:normal;color-interpolation:sRGB;color-interpolation-filters:linearRGB;solid-color:#000000;solid-opacity:1;fill-opacity:0;fill-rule:nonzero;filter-blend-mode:normal;filter-gaussianBlur-deviation:0;color-rendering:auto;image-rendering:auto;shape-rendering:auto;text-rendering:auto" />
  <path
     style="font-size:13.9508791px;font-style:normal;font-variant:normal;font-weight:600;font-stretch:normal;text-align:start;line-height:125%;letter-spacing:0px;word-spacing:0px;writing-mode:lr-tb;text-anchor:start;fill:#ffffff;fill-opacity:1;stroke:none;font-family:Open Sans;-inkscape-font-specification:Open Sans Semi-Bold"
     d="m 22.881455,17 -1.047697,-3 -3.696762,0 -1.032077,3 c -0.572204,0 -1.144408,0 -1.716612,0 1.242046,-3.333316 2.484092,-6.666631 3.726138,-9.9999465 0.590369,0 1.180738,0 1.771107,0 C 22.127598,10.333369 23.369645,13.666684 24.611691,17 24.034945,17 23.4582,17 22.881455,17 z M 21.490581,13 20,8.651745 18.479234,13 z"
     id="text4533" />
</svg>

<svg xmlns="http://www.w3.org/2000/svg" width="32" height="32"><rect width="18" height="18" rx=".541" ry=".541" x="3" y="-29" transform="scale(1 -1)" style="marker:none" color="#000" fill="#f2f2f2" overflow="visible"/><path style="text-align:start;line-height:125%;-inkscape-font-specification:Open Sans Semi-Bold" d="M10.094 14.25c-.005.055-.009.197-.031.406-.041.332-.072.612-.094.844l-.031.438-.032.312c-.513.036-1.066.063-1.625.063-.372 0-.743-.036-1.125-.063l.094.969c.145.009.349.031.594.031.631 0 1.274-.04 1.968-.094-.068.813-.08 1.534-.093 2.157-.459.25-.826.492-1.094.687C7.222 21.058 6.5 22.219 6.5 23.531 6.5 24.5 6.923 25 7.75 25c.686 0 1.41-.294 2.188-.844.077.486.133.81.156.938l1-.375a8.242 8.242 0 0 1-.219-1.313 10.81 10.81 0 0 0 1.594-1.906H11.5c-.057 0-.102-.022-.156-.031-.19.262-.381.513-.594.75-.018-.27-.02-.742-.031-1.094a.994.994 0 0 1-.219-.625v-6.219l-.406-.031zm-.406 6.031c.013 1.154.056 2.086.124 2.813-.667.613-1.289.937-1.874.937-.268 0-.407-.169-.407-.468 0-.064-.017-.111-.031-.157a.428.428 0 0 0 .031-.156c.055-.704.43-1.42 1.157-2.156.34-.359.682-.622 1-.813zm6.687 1.219c.012.103.031.203.031.313 0 .899-.44 1.61-1.312 2.156-.686.431-1.601.72-2.75.843l.594.938c1.312-.186 2.34-.566 3.093-1.125.968-.718 1.469-1.668 1.469-2.813 0-.108-.022-.208-.031-.312h-1.094z" font-size="13.951" font-weight="600" letter-spacing="0" word-spacing="0" fill="#666" font-family="Open Sans"/><rect width="19" height="19" rx="1" ry="1" x="2.5" y="10.5" style="marker:none" color="#000" fill="none" stroke="#000" stroke-linecap="round" stroke-linejoin="round" stroke-opacity=".196" overflow="visible"/><rect width="19" height="19" rx="1" ry="1" x="10.5" y="2.5" style="marker:none" color="#000" fill="#51a6f5" overflow="visible"/><rect width="19" height="19" rx="1" ry="1" x="10.5" y="2.5" style="marker:none;isolation:auto;mix-blend-mode:normal;solid-color:#000;solid-opacity:1;filter-blend-mode:normal;filter-gaussianBlur-deviation:0" opacity=".5" color="#000" stroke="#002e99" stroke-linecap="round" stroke-linejoin="round" overflow="visible" fill="none"/><path style="text-align:start;line-height:125%;-inkscape-font-specification:Open Sans Semi-Bold" d="M22.881 17l-1.047-3h-3.697l-1.032 3h-1.717l3.726-10h1.772l3.726 10h-1.73zm-1.39-4L20 8.652 18.48 13z" font-size="13.951" font-weight="600" letter-spacing="0" word-spacing="0" fill="#fff" font-family="Open Sans"/></svg>
